X: 1598
T: Rast Peşrev
C: Giriftzen Asım Bey
O: Turkey
F: http://compmusic.upf.edu/node/140
N: rast--pesrev--devrikebir----giriftzen_asim_bey
N: makam= rast
N: form= pesrev
N: usul= devrikebir = 28/4
M: 28/4
L: 1/16
K: C _1/4B ^f  
Q: 1/4=69
%%MIDI tuningsystem comma53
D4 G8 F4  | G2A2 G2F2 EFED E2F2  | G4 AcBA A8  | \
w:  1. HANE  |   |   | 
G2A2 B2c2 d2B2 G2B2  | 
w:   | 
A4 ABAG G4 z4  | G2c4cB B3A d2cB  | BcBA ABAG G2BA B2c2  | 
w:   |   |   | 
B3A ABAG G8  | d3c B3A G3A B2c2  | d2cB f2_7/8ed d6B2  | 
w:   |   |   | 
c2B2 d4 z2d4^cB  | B6AG G3A B2c2  | e2d2 c2B2 B2AB cdcB  | 
w:   |   |   | 
B3A ABAG G8  | G2c4cB B3A AcBA  | A6G2 F3E D4  | 
w:   |  TESLİM  |   | 
D3E F2G2 E3F G2A2  | F3G A2B2 cBce d2c2  | \
w:   |   | 
BcBA BAG2 z2AG A2c2  | 
w:   | 
B3G A2F2 G8  | F2ED B2AG G6Bc  | d8 d2_7/8e4ed  | \
w:   |   |  2. HANE  | 
d3c c3B B3_7/8A BAAG  | 
w:   | 
G3_7/8A B2c2 d2cB f2_7/8ed  | d6B2 cdcB d4  | \
w:   |   | 
z2d_7/8e f2g2 f3e d2f2  | 
w:   | 
f3_7/8e efed d8  | z2d_7/8e f2g2 f2=f2 agg^f  | \
w:   |   | 
f6=f2 fddf ^f4  | 
w:   | 
f4 =f2^f2 g2a2 g2f2  | g3c' b2a2 agfe f2g2  | \
w:   |   | 
f2g2 abag g6e2  | 
w:   | 
d6c2 BcBA B2c2  | B2e2 d2c2 B2AB cdcB  | \
w:   |   | 
B3A ABAG G8  | 
w:   | 
G2c4cB B3A AcBA  | A6G2 F3E D4  | D3E F2G2 E3F G2A2  | 
w:  TESLİM  |   |   | 
F3G A2B2 cBce d2c2  | BcBA BAG2 z2AG A2c2  | 
w:   |   | 
B3G A2F2 G8  | F2ED B2AG G6ef  | g8 f4 g4  | \
w:   |   |  3. HANE  | 
g2a2 g2a2 gfe2 f2g2  | 
w:   | 
gffe d2e2 d4 ^c2d2  | e2g2 f2e2 ed^c=B c2d2  | \
w:   |   | 
^c2d2 e2f2 d4 egfe  | 
w:   | 
e8 d3e f2g2  | f3e d2b2 a3g f2g2  | f2g2 abag g6a2  | 
w:   |   |   | 
b2c'2 d'2c'2 b6ba  | a6ag g2b4ag  | g8 d2g4=fe  | \
w:   |   |   | 
d6c2 BcBA B2c2  | 
w:   | 
B3e d2c2 B2AB cdcB  | B3A ABAG G8  | \
w:   |   | 
G2c4cB B3A AcBA  | 
w:  TESLİM  | 
A6G2 F3E D4  | D3E F2G2 E3F G2A2  | F3G A2B2 cBce d2c2  | 
w:   |   |   | 
BcBA BAG2 z2AG A2c2  | B3G A2F2 G8  | \
w:   |   | 
F2ED B2AG G8  | 
w:   | 
G3c B2A2 G2F2 E2D2  | E2F2 G2A2 B3A ABAG  | \
w:  4. HANE  |   | 
G6A2 (3B2A2B2 (3c2B2c2  | 
w:   | 
(3d2c2d2 (3e2d2e2 (3f2e2f2 g2z2  | \
w:   | 
d4 g2(3gfe f6d2  | (3fede4c2 d6B2  | 
w:   |   | 
c3B2=fed d8  | z2cd c2d2 e2=fg e2d2  | \
w:   |   | 
d2c2 c2de dcB^A B2c2  | 
w:   | 
B4 A2B2 c2d2 c2B2  | dcde d2c2 cBBA A4  | \
w:   |   | 
A4 G2A2 B2c2 B2A2  | 
w:   | 
G3e d2c2 B2AB cdcB  | B3A ABAG G8  | \
w:   |   | 
G2c4cB B3A AcBA  | 
w:  TESLİM  | 
A6G2 F3E D4  | D3E F2G2 E3F G2A2  | F3G A2B2 cBce d2c2  | 
w:   |   |   | 
BcBA BAG2 z2AG A2c2  | B3G A2F2 G8  | |


